assets/icons/traton/edit_inactive.svg

<svg xmlns="http://www.w3.org/2000/svg" width="32" height="32" viewBox="0 0 32 32" fill="none">
<path d="M12.248 16.5762L6 22.8301L5.41016 26.5996L9.17969 26L15.4229 19.751L16.8359 21.1641L10.1299 27.8701L3 29L4.12988 21.8701L10.8359 15.1641L12.248 16.5762ZM28.0244 26.5059L27.3164 27.2129L26.6094 27.9209L4.08496 5.39551L5.49902 3.98145L28.0244 26.5059ZM29 9L21.5176 16.4824L20.1025 15.0674L21.5801 13.5898L18.4102 10.4102L16.9277 11.8926L15.5176 10.4824L23 3L29 9ZM19.8301 9L23 12.1699L26.1699 9L23 5.83008L19.8301 9Z" fill="#001D21" />
</svg>

<svg xmlns="http://www.w3.org/2000/svg" fill="none" viewBox="0 0 32 32"><path fill="#001d21" d="M12.25 16.58 6 22.83l-.59 3.77 3.77-.6 6.24-6.25 1.42 1.41-6.71 6.71L3 29l1.13-7.13 6.7-6.7zm15.77 9.93-.7.7-.71.71L4.08 5.4 5.5 3.98zM29 9l-7.48 7.48-1.42-1.41 1.48-1.48-3.17-3.18-1.48 1.48-1.41-1.4L23 3zm-9.17 0L23 12.17 26.17 9 23 5.83z"/></svg>
